dist/svg/circle-merge.svg

<!-- Generated by Trend Micro Style Portal -->
<svg version="1.1" xmlns="http://www.w3.org/2000/svg" width="16" height="16" viewBox="0 0 16 16">
  <title>circle-merge</title>
  <path fill="rgb(34,34,34)" d="M0 10c0-3.314 2.686-6 6-6s6 2.686 6 6c0 3.314-2.686 6-6 6v0c-3.312-0.004-5.996-2.688-6-6v-0zM13.44 10.907c1.556-1.098 2.56-2.888 2.56-4.913 0-3.31-2.684-5.994-5.994-5.994-2.025 0-3.815 1.004-4.9 2.542l-0.013 0.019c0.285-0.039 0.614-0.061 0.948-0.061 4.119 0 7.459 3.339 7.459 7.459 0 0.334-0.022 0.664-0.065 0.986l0.004-0.038z"></path>
</svg>

<svg width="16" height="16" viewBox="0 0 16 16" fill="rgb(34, 34, 34)" xmlns="http://www.w3.org/2000/svg"><title>circle-merge</title><path d="M0 10C0 6.686 2.686 4 6 4C9.314 4 12 6.686 12 10C12 13.314 9.314 16 6 16C2.688 15.996 0.004 13.312 0 10ZM13.44 10.907C14.996 9.809 16 8.019 16 5.994C16 2.684 13.316 0 10.006 0C7.981 0 6.191 1.004 5.106 2.542L5.093 2.561C5.378 2.522 5.707 2.5 6.041 2.5C10.16 2.5 13.5 5.839 13.5 9.959C13.5 10.293 13.478 10.623 13.435 10.945L13.44 10.907Z" fill="rgb(34, 34, 34)" fill-opacity="1.00"/></svg>
